/* XPM */
static char *_0f17758860741bf89d1764867755694A9yCnmBhrlWxgKvQ[] = {
/* columns rows colors chars-per-pixel */
"60 60 8 1 ",
"  c black",
". c #6C0000",
"X c #C41411",
"o c #E51C23",
"O c #155BBD",
"+ c #1866D8",
"@ c #3F83EA",
"# c white",
/* pixels */
"OOOOOOOOOOOOOOO+O+OOOOOOOOOOOOOOOOOOOOOOOOOOOOOOOOOOOOOOOOOO",
"OOOOOOOOOOOOOOOOOOOOOOOOOOOOOOOOOOOOOOOO@OOOOOOOOOOOOOOOOOOO",
"OOOOOOOOOOOOOOOOOOOOOOOOOOOOOOOOOOOOOOO+O+OOOOOOOOOOOOOOOOO@",
"OOOOOOOO@OOOOOOOOOOOOOOOOOOOOOOOOOOOOOOOOOOOOOOOOOOOOOOOOO+O",
"OOOOOOO+O+OOOOOOOOOOOOOOOOO@OOOOOOOOOOOOOOOOOOOOOOOOOOOOOOOO",
"OOOOOOOOOOOOOOOOOOOOOOOOOO+O+OOOOOOOOOOOOOOOOOOOOOOOOOOOOOOO",
"OOOOOOOOOOOOOOOOOOOOOOOOOOOOOOOOOOOOOOOOOOOOOOOOOOOOOOOOOOOO",
"OOOOOOOOOOOOOOOOOOOOOOOOOOOOOOO@OOOOOOOOOOOOOOOOOOOOOOOOOOOO",
"OOOOOOOOOOOOOOOOOOOOOOOOOOOOOO+O+OOOOOOOOOOOOOOOOOOOOOOOOOOO",
"OOOOOOOOOOOOOOOOOOOOOOOOOOOOOOOOOOOOOOOOOOOOOOOOOOOOOOOO@OOO",
"+OOOOOOOOOOOOOOOOOOOOOOOOOOOOOOOOOOOOOOOOOOO+OOOOOOOOOO+O+OO",
"OOOOOOOOOOOOOOOOOOOOOOOO@OOOOOOOOOOOOOOOOOO+O+OOOOOOOOOOOOOO",
"OOOOOOOOOOOO+OOOOOOOOOO+O+OOOOOOOOOOOOOOOOOOOOOOOOOOOOOOOOOO",
"OOOOOOOOOOO+O+OOOOOOOOOOOOOOOOOOOOOOOOOOOOOOOOOOOOOOOOOOOOOO",
"OOOOOOOOOOOOOOOOOOOOOOOOOOOOOOOOOOOOOOOOOOOOOOOOOOOOOOOOOOOO",
"OOOOOOOOOOOOOOOOOOOOOOOOOOOOOOOOOOOOOOOOOOOOOOOOOOOOOOOOOOOO",
"OOOOOOOOOOOOOOOOOOOOOOOOOOOOOOOOOO+OOOOOOOOOOOOOOOOOOOOOOOOO",
"OOOOOOOOOOOOOOOOOOOOOOOOOOOOOOOOO+O+OOOOOOOOOOOO@OOOOOOOOOOO",
"OO+OOOOOOOOOOOOOOOOOOOOOOOOOOOOOOOOOOOOOOOOOOOO+O+OOOOOOOOOO",
"O+O+OOOOOOOOOOOO@OOOOOOOOOOOOOOOOOOOOOOOOOOOOOOOOOOOOOOOOOO+",
"OOOOOOOOOOOOOOO+O+OOOOOOOOOOOOOOOOOOOOOOOOOOOOOOOOOOOOOOOO+O",
"OOOOOOOOOOOOOOOOOOOOOOOOOOO+OOOOOOOOOOOOOOOOOOOOOOOOOOOOOOOO",
"OOOOOOOOOOOOOOOOOOOOOOOOOO+O+OOOOOOOOOOOOO OOOOOOOOOOOOOOOOO",
"OOOOOOOOOOOOOOOOOOOOOOOOOOOO      OOOOO O X OOOOOOOOOOOOOOOO",
"OOOOOOOOOOOOOOOOOOOOOOOOOOO oooooo OOO o oX OOOOOOOOOOOOOOOO",
"OOOOOOO@OOOOOOOOOOOOOOOOOO oooooooo O ooooX OO+OOOOOOOOOOOOO",
"OOOOOO+O+OOOOOOOOOOOOOOOO oo.oooo.oo  XXXX OO+O+OOOOOOOOOOOO",
"@OOOOOOOOOOOOO+OOO OOOOOO oo..oo..oo      OOOOOOOOOOOOOOOOOO",
"O+OOOOOOOOOOO+O+O X OO OO oooooooooo  OOOOOOO+O+OOOOOOOOOOOO",
"OOOOOOOOOOOOOOOOO Xo  o   XooooooooX OOOOOOOOO+OOOOOOOOOOOOO",
"OOOOOOOOOOOOOOO#OO oooooo  XooooooX   OOOOOOO+O+OOOOOOOOOOOO",
"OOOOOOOOOOOOOOO#O+O XoXXX           oo OOOOOOOOOOOOOOOOOOOOO",
"OOOOOOOOOOOOOOOOOOOO X   o OOOOOOOOO oo OOOOOOOOOOOOOOOOOOOO",
"OOOOOOOOOOOOOOOOO#OOO O o OOOOOOOOOOO X OOOOOOOOOOOOOOOOOOOO",
"OOOOOOOOOO@OOOOOO#OOOOO o OOOOOOOOOOO X OOOOOOOOOOOOOOOOO@OO",
"OOOOOOOOO+O+OOOOOOO#OOOO OOOO@OOOOOOOO OOOOOOOOOOOOOOOOO+O+O",
"OOOOOOOOOOOOOOOOOOO#OOOOOOOO+O+OOOOOOOOOOOOOOOOOOOOOOOOOOOOO",
"OOOOOOOOOOOOOOOOOOOOOOOOOOOOOOOOOOOOOOOOOOOOOOOOOOOOOOOOOOOO",
"OOOOOOOOOOOOOOOOOOOOOOOOOOOOOOOOOOOOOOOOOOOOOOOOOOOOOOOOOOOO",
"OOOOOOOOOOOOOOOOOOOOOOOOOOOOOOOOOOOOOOOOOOOOOOOOOOOOOOOOOOOO",
"O@OOOOOOOOOOOOOOOOOOOOOOOOOOOOOOOOOOOOOOOOOOOOOOOOOOOOOOOOOO",
"+O+OOOOOOOOOOOOOOOOOOOOOOOOOOOOOOOOOOOOOOOOOOOOOOOOOOO@OOOOO",
"OOOOOOOOOOOOOOOOOOOOOOOOOO@OOOOOOOOOOOOOOO+OOOOOOOOOO+O+OOOO",
"OOOOOOOOOOOOOO+OOOOOOOOOO+O+OOOOOOOOOOOOO+O+OOOOOOOOOOOOOOOO",
"OOOOOOOOOOOOO+O+OOOOOOOOOOOOOOOOOOOOOOOOOOOOOOOOOOOOOOOOOOOO",
"OOOOOOOOOOOOOOOOOOOOOOOOOOOOOOOOOOOOOOOOOOOOOOOOOOOOOOOOOOOO",
"OOOOOOOOOOOOOOOOOOOOOOOOOOOOOOOOOOOOOOOOOOOOOOOOOOOOOOOOOOOO",
"OOOOOOOOOOOOOOOOOOOOOOOOOOOOOOOOOOOOOOOOOOOOOOOOOOOOOOOOOOOO",
"OOOOOOOOOOOOOOOOOOOOOOOOOOOOOOOO+OOOOOOOOOOOOOOOOOOOOOOOOOOO",
"OOOO+OOOOOOOOOOOOOOOOOOOOOOOOOOOO+OOOOOOOOOOOO@OOOOOOOOOOOOO",
"OOO+O+OOOOOOOOOOOO@OOOOOOOOOOOOOOOOOOOOOOOOOO+O+OOOOOOOOOOOO",
"OOOOOOOOOOOOOOOOO+O+OOOOOOOOOOOOOOOOOOOOOOOOOOOOOOOOOOOOO+OO",
"OOOOOOOOOOOOOOOOOOOOOOOOOOOOO+OOOOOOOOOOOOOOOOOOOOOOOOOO+O+O",
"OOOOOOOOOOOOOOOOOOOOOOOOOOOO+O+OOOOOOOOOOOOOOOOOOOOOOOOOOOOO",
"OOOOOOOOOOOOOOOOOOOOOOOOOOOOOOOOOOOOOOOOOOOOOOOOOOOOOOOOOOOO",
"OOOOOOOOOOOOOOOOOOOOOOOOOOOOOOOOOOOOO@OOOOOOOOOOOOOOOOOOOOOO",
"OOOOOOOOO@OOOOOOOOOOOOOOOOOOOOOOOOOO+O+OOOOOOOOOOOOOOOOOOOOO",
"OOOOOOOO+O+OOOOOOOOOOOOOOOOOOOOOOOOOOOOOOOOO+OOOOOOOOOOOOOOO",
"OO@OOOOOOOOOOOOO+OOOOOOOOOOOOOOOOOOOOOOOOOO+O+OOOOOOOOOOOOOO",
"O+O+OOOOOOOOOOO+O+OOOOOOOOOOOOOOOOOOOOOOOOOOOOOOOOOOOOOOOOOO"
};
