/* XPM */
static char *_b145e6b121847c9f3eacefc15975682hpSxPRM3GAtCCmEa[] = {
/* columns rows colors chars-per-pixel */
"60 60 8 1 ",
"  c black",
". c #6C0000",
"X c #C41411",
"o c #E51C23",
"O c #155BBD",
"+ c #1866D8",
"@ c #3F83EA",
"# c white",
/* pixels */
"OOOOOOOOOOOOOOO+O+OOOOOOOOOOOOOOOOOOOOOOOOOOOOOOOOOOOOOOOOOO",
"OOOOOOOOOOOOOOOOOOOOOOOOOOOOOOOOOOOOOOOO@OOOOOOOOOOOOOOOOOOO",
"OOOOOOOOOOOOOOOOOOOOOOOOOOOOOOOOOOOOOOO+O+OOOOOOOOOOOOOOOOO@",
"OOOOOOOO@OOOOOOOOOOOOOOOOOOOOOOOOOOOOOOOOOOOOOOOOOOOOOOOOO+O",
"OOOOOOO+O+OOOOOOOOOOOOOOOOO@OOOOOOOOOOOOOOOOOOOOOOOOOOOOOOOO",
"OOOOOOOOOOOOOOOOOOOOOOOOOO+O+OOOOOOOOOOOOOOOOOOOOOOOOOOOOOOO",
"OOOOOOOOOOOOOOOOOOOOOOOOOOOOOOOOOOOOOOOOOOOOOOOOOOOOOOOOOOOO",
"OOOOOOOOOOOOOOOOOOOOOOOOOOOOOOO@OOOOOOOOOOOOOOOOOOOOOOOOOOOO",
"OOOOOOOOOOOOOOOOOOOOOOOOOOOOOO+O+OOOOOOOOOOOOOOOOOOOOOOOOOOO",
"OOOOOOOOOOOOOOOOOOOOOOOOOOOOOOOOOOOOOOOOOOOOOOOOOOOOOOOO@OOO",
"+OOOOOOOOOOOOOOOOOOOOOOOOOOOOOOOOOOOOOOOOOOO+OOOOOOOOOO+O+OO",
"OOOOOOOOOOOOOOOOOOOOOOOO@OOOOOOOOOOOOOOOOOO+O+OOOOOOOOOOOOOO",
"OOOOOOOOOOOO+OOOOOOOOOO+O+OOOOOOOOOOOOOOOOOOOOOOOOOOOOOOOOOO",
"OOOOOOOOOOO+O+OOOOOOOOOOOOOOOOOOOOOOOOOOOOOOOOOOOOOOOOOOOOOO",
"OOOOOOOOOOOOOOOOOOOOOOOOOOOOOOOOOOOOOOOOOOOOOOOOOOOOOOOOOOOO",
"OOOOOOOOOOOOOOOOOOOOOOOOOOOOOOOOOOOOOOOOOOOOOOOOOOOOOOOOOOOO",
"OOOOOOOOOOOOOOOOOOOOOOOOOOOOOOOOOO+OOOOOOOOOOOOOOOOOOOOOOOOO",
"OOOOOOOOOOOOOOOOOOOOOOOOOOOOOOOOO+O+OOOOOOOOOOOO@OOOOOOOOOOO",
"OO+OOOOOOOOOOOOOOOOOOOOOOOOOOOOOOOOOOOOOOOOOOOO+O+OOOOOOOOOO",
"O+O+OOOOOOOOOOOO@OOOOOOOOOOOOOOOOOOOOOOOOOOOOOOOOOOOOOOOOOO+",
"OOOOOOOOOOOOOOO+O+OOOOOOOOOOOOOOOOOOOO#OOOOOOOOOOOOOOOOOOO+O",
"OOOOOOOOOOOOOOOOOOOOOOOOOOO+OOOOOOOOOO#OOOOOOOOOOOOOOOOOOOOO",
"OOOOOOOOOOOOOOOOOOOOOOOOOO+O+OOOOOOOOO#OOO#OOOOOOOOOOOOOOOOO",
"OOOOOOOOOOOOOOOOOO OO OOOOOOOOOOOOOOOOO@#O#OOOOOOOOOOOOOOOOO",
"OOOOOOOOOOOOOOOOO X  o  OOOO      OOOO+O#O#OOOOOOOOOOOOOOOOO",
"OOOOOOO@OOOOOOOOO Xooooo OO oooooo OOOOOOOOOOO+OOOOOOOOOOOOO",
"OOOOOO+O+OOOOOOOOO XoXXX O oooooooo OOOOOO OO+O+OOOOOOOOOOOO",
"@OOOOOOOOOOOOO+OOOO X     oo.oooo.oo O  O X OOOOOOOOOOOOOOOO",
"O+OOOOOOOOOOO+O+OOOO OOOO oo..oo..oo Ooo oX O+O+OOOOOOOOOOOO",
"OOOOOOOOOOOOOOOOOOOOOOOOO oooooooooo  ooooX OO+OOOOOOOOOOOOO",
"OOOOOOOOOOOOOOOOOO+OOOOOO XooooooooX  XXXX OO+O+OOOOOOOOOOOO",
"OOOOOOOOOOOOOOOOO+O+OOOO   XooooooX       OOOOOOOOOOOOOOOOOO",
"OOOOOOOOOOOOOOOOOOOOOOO oo          oo OOOOOOOOOOOOOOOOOOOOO",
"OOOOOOOOOOOOOOOOOOOOOO oo OOOOOOOOOO oo OOOOOOOOOOOOOOOOOOOO",
"OOOOOOOOOO@OOOOOOOOOOO X OOOOOOOOOOOO X OOOOOOOOOOOOOOOOO@OO",
"OOOOOOOOO+O+OOOOOOOOOO X OOOO@OOOOOOO X OOOOOOOOOOOOOOOO+O+O",
"OOOOOOOOOOOOOOOOOOOOOOO OOOO+O+OOOOOOO OOOOOOOOOOOOOOOOOOOOO",
"OOOOOOOOOOOOOOOOOOOOOOOOOOOOOOOOOOOOOOOOOOOOOOOOOOOOOOOOOOOO",
"OOOOOOOOOOOOOOOOOOOOOOOOOOOOOOOOOOOOOOOOOOOOOOOOOOOOOOOOOOOO",
"OOOOOOOOOOOOOOOOOOOOOOOOOOOOOOOOOOOOOOOOOOOOOOOOOOOOOOOOOOOO",
"O@OOOOOOOOOOOOOOOOOOOOOOOOOOOOOOOOOOOOOOOOOOOOOOOOOOOOOOOOOO",
"+O+OOOOOOOOOOOOOOOOOOOOOOOOOOOOOOOOOOOOOOOOOOOOOOOOOOO@OOOOO",
"OOOOOOOOOOOOOOOOOOOOOOOOOO@OOOOOOOOOOOOOOO+OOOOOOOOOO+O+OOOO",
"OOOOOOOOOOOOOO+OOOOOOOOOO+O+OOOOOOOOOOOOO+O+OOOOOOOOOOOOOOOO",
"OOOOOOOOOOOOO+O+OOOOOOOOOOOOOOOOOOOOOOOOOOOOOOOOOOOOOOOOOOOO",
"OOOOOOOOOOOOOOOOOOOOOOOOOOOOOOOOOOOOOOOOOOOOOOOOOOOOOOOOOOOO",
"OOOOOOOOOOOOOOOOOOOOOOOOOOOOOOOOOOOOOOOOOOOOOOOOOOOOOOOOOOOO",
"OOOOOOOOOOOOOOOOOOOOOOOOOOOOOOOOOOOOOOOOOOOOOOOOOOOOOOOOOOOO",
"OOOOOOOOOOOOOOOOOOOOOOOOOOOOOOOO+OOOOOOOOOOOOOOOOOOOOOOOOOOO",
"OOOO+OOOOOOOOOOOOOOOOOOOOOOOOOOOO+OOOOOOOOOOOO@OOOOOOOOOOOOO",
"OOO+O+OOOOOOOOOOOO@OOOOOOOOOOOOOOOOOOOOOOOOOO+O+OOOOOOOOOOOO",
"OOOOOOOOOOOOOOOOO+O+OOOOOOOOOOOOOOOOOOOOOOOOOOOOOOOOOOOOO+OO",
"OOOOOOOOOOOOOOOOOOOOOOOOOOOOO+OOOOOOOOOOOOOOOOOOOOOOOOOO+O+O",
"OOOOOOOOOOOOOOOOOOOOOOOOOOOO+O+OOOOOOOOOOOOOOOOOOOOOOOOOOOOO",
"OOOOOOOOOOOOOOOOOOOOOOOOOOOOOOOOOOOOOOOOOOOOOOOOOOOOOOOOOOOO",
"OOOOOOOOOOOOOOOOOOOOOOOOOOOOOOOOOOOOO@OOOOOOOOOOOOOOOOOOOOOO",
"OOOOOOOOO@OOOOOOOOOOOOOOOOOOOOOOOOOO+O+OOOOOOOOOOOOOOOOOOOOO",
"OOOOOOOO+O+OOOOOOOOOOOOOOOOOOOOOOOOOOOOOOOOO+OOOOOOOOOOOOOOO",
"OO@OOOOOOOOOOOOO+OOOOOOOOOOOOOOOOOOOOOOOOOO+O+OOOOOOOOOOOOOO",
"O+O+OOOOOOOOOOO+O+OOOOOOOOOOOOOOOOOOOOOOOOOOOOOOOOOOOOOOOOOO"
};
