/* XPM */
static char *_2bb56ec8f254108e6f39d9539cac759qDqHPh1c4kzpYBei[] = {
/* columns rows colors chars-per-pixel */
"60 60 9 1 ",
"  c black",
". c #6C0000",
"X c #C41411",
"o c #E51C23",
"O c #003D91",
"+ c #155BBD",
"@ c #1866D8",
"# c #3F83EA",
"$ c white",
/* pixels */
"OOOOOOOOOOOOOOOOOOOOOOOOOOOOOOOOOOOOOOOOOOOOOOOOOOOOOOOOOOOO",
"OOOOOOOOOOOOOOOOOOOOOOOOOOOOOOOOOOOOOOOOOOOOOOOOOOOOOOOOOOOO",
"OOOOOOOOOOOOOOOOOOOOOOOOOOOOOOOOOOOOOOOOOOOOOOOOOOOOOOOOOOOO",
"OOOOOOOOOOOOOO++++++OOOOOOOOOOOOOOOOOOOOOOOOOOO++++OOOOOOOOO",
"OOO++OOOOOOOOO+++++++++++++#++++++++OOO+++++++++++++++OOOOOO",
"OOO+++OOOOOOOO++++++++++++@+@++++++++++++++++++++++++++++OOO",
"OOO+++OOO++++++++++++++++++++++++++++++++++++++++++++++++OOO",
"OOO++++++++++++++++++++++++++++#+++++++++++++++++++++++++OOO",
"OOO+++++++++++++++++++++++++++@+@++++++++++++++++++++++++OOO",
"OOO+++++++++++++++++++++++++++++++++++++++++++++++++++++#OOO",
"OOO+++++++++++++++++++++++++++++++++++++++++@++++++++++@+OOO",
"OOO+++++++++++++++++++++#++++++++++++++++++@+@++++++++++++OO",
"OOO+++++++++@++++++++++@+@++++++++++++++++++++++++++++++++OO",
"OOO++++++++@+@++++++++++++++++++++++++++++++++++++++++++++OO",
"OOO+++++++++++++++++++++++++++++++++++++++++++++++++++++++OO",
"OOOO++++++++++++++++++++++++++++++++++++++++++++++++++++++OO",
"OOOOO+++++++++++++++++++++++++++++@+++++++++++++++++++++++OO",
"OOOOO++++++++++++++++++++++++++++@+@++++++++++++#+++++++++OO",
"OOOOO++++++++++++++++++++++++++++++++++++++++++@+@++++++++OO",
"OOOOO+++++++++++#++++++++++++++++++++++++++++++++++++++++OOO",
"OOOOO++++++++++@+@++++++++++++++++++++$++++++++++++++++++OOO",
"OOOO+++++++++++++++++++++++@++++++++++$++++++++++++++++++OOO",
"OOOO++++++++++++++++++++++@+@+++++++++$+++$+++++++++++++OOOO",
"OOOO++++++++++++++ ++ +++++++++++++++++#$+$+++++++++++++OOOO",
"OOOO+++++++++++++ X  o  ++++      ++++@+$+$+++++++++++++OOOO",
"OOOO+++#+++++++++ Xooooo ++ oooooo +++++++++++@+++++++++OOOO",
"OOOO++@+@+++++++++ XoXXX + oooooooo ++++++ ++@+@++++++++OOOO",
"OOOO++++++++++@++++ X     oo.oooo.oo +  + X ++++++++++++OOOO",
"OOOO+++++++++@+@++++ ++++ oo..oo..oo +oo oX +@+@++++++++OOOO",
"OOOOO++++++++++++++++++++ oooooooooo  ooooX ++@+++++++++OOOO",
"OOOOO+++++++++++++@++++++ XooooooooX  XXXX ++@+@++++++++OOOO",
"OOOOO++++++++++++@+@++++   XooooooX       ++++++++++++++OOOO",
"OOOOO++++++++++++++++++ oo          oo +++++++++++++++++OOOO",
"OOOOO+++++++++++++++++ oo ++++++++++ oo ++++++++++++++++OOOO",
"OOOO++++++#+++++++++++ X ++++++++++++ X ++++++++++++++++OOOO",
"OOOO+++++@+@++++++++++ X ++++#+++++++ X ++++++++++++++++OOOO",
"OOOO+++++++++++++++++++ ++++@+@+++++++ ++++++++++++++++++OOO",
"OOO++++++++++++++++++++++++++++++++++++++++++++++++++++++OOO",
"OOOO+++++++++++++++++++++++++++++++++++++++++++++++++++++OOO",
"OOOO+++++++++++++++++++++++++++++++++++++++++++++++++++++OOO",
"OOOO+++++++++++++++++++++++++++++++++++++++++++++++++++++OOO",
"OOOO++++++++++++++++++++++++++++++++++++++++++++++++++#+++OO",
"OOOO++++++++++++++++++++++#+++++++++++++++@++++++++++@+@+OOO",
"OOOO++++++++++@++++++++++@+@+++++++++++++@+@+++++++++++++OOO",
"OOOO+++++++++@+@+++++++++++++++++++++++++++++++++++++++++OOO",
"OOOO+++++++++++++++++++++++++++++++++++++++++++++++++++++OOO",
"OOOO+++++++++++++++++++++++++++++++++++++++++++++++++++++OOO",
"OOOO+++++++++++++++++++++++++++++++++++++++++++++++++++++OOO",
"OOOO++++++++++++++++++++++++++++@+++++++++++++++++++++++OOOO",
"OOOO@++++++++++++++++++++++++++++@++++++++++++#+++++++++OOOO",
"OOOO+@++++++++++++#++++++++++++++++++++++++++@+@+++++++++OOO",
"OOOO+++++++++++++@+@+++++++++++++++++++++++++++++++++++++OOO",
"OOOO+++++++++++++++++++++++++@++++++++++++++++++++++++++@OOO",
"OOOOO+++++++++++++++++++++++@+@++++++++++++++++++++++++++OOO",
"OOOOO+++OO+++++++++++++++++++++++++++++++++++++++++++++++OOO",
"OOOO++OOOOOOOOOOOO+++++++++++++++++++#++++++++++++++++OO+OOO",
"OOOOOOOOOOOOOOOOOOOO+++++++++OOOOOOO@+@+++++++OOO+++OOOO+OOO",
"OOOOOOOOOOOOOOOOOOOOOOOOOOOOOOOOOOOOOOOOO+++@OOOOOOOOOOOOOOO",
"OOOOOOOOOOOOOOOOOOOOOOOOOOOOOOOOOOOOOOOOOOOOOOOOOOOOOOOOOOOO",
"OOOOOOOOOOOOOOOOOOOOOOOOOOOOOOOOOOOOOOOOOOOOOOOOOOOOOOOOOOOO"
};
