/* XPM */
static char *_5ce3126bcd14f40a230d981a2da91eerKD5m8kfvxKWgorJ[] = {
/* columns rows colors chars-per-pixel */
"60 60 8 1 ",
"  c black",
". c #0C4117",
"X c #515752",
"o c #747975",
"O c #155BBD",
"+ c #1866D8",
"@ c #3F83EA",
"# c #ADB7AF",
/* pixels */
"OOOOOOOOOOOOOOO+O+OOOOOOOOOOOOOOOOOOOOOOOOOOOOOOOOOOOOOOOOOO",
"OOOOOOOOOOOOOOOOOOOOOOOOOOOOOOOOOOOOOOOO@OOOOOOOOOOOOOOOOOOO",
"OOOOOOOOOOOOOOOOOOOOOOOOOOOOOOOOOOOOOOO+O+OOOOOOOOOOOOOOOOO@",
"OOOOOOOO@OOOOOOOOOOOOOOOOOOOOOOOOOOOOOOOOOOOOOOOOOOOOOOOOO+O",
"OOOOOOO+O+OOOOOOOOOOOOOOOOO@OOOOOOOOOOOOOOOOOOOOOOOOOOOOOOOO",
"OOOOOOOOOOOOOOOOOOOOOOOOOO+O+OOOOOOOOOOOOOOOOOOOOOOOOOOOOOOO",
"OOOOOOOOOOOOOOOOOOOOOOOOOOOOOOOOOOOOOOOOOOOOOOOOOOOOOOOOOOOO",
"OOOOOOOOOOOOOOOOOOOOOOOOOOOOOOO@OOOOOOOOOOOOOOOOOOOOOOOOOOOO",
"OOOOOOOOOOOOOOOOOOOOOOOOOOOOOO+O+OOOOOOOOOOOOOOOOOOOOOOOOOOO",
"OOOOOOOOOOOOOOOOOOOOOOOOOOOOOOOOOOOOOOOOOOOOOOOOOOOOOOOO@OOO",
"+OOOOOOOOOOOOOOOOOOOOOOOOOOOOOOOOOOOOOOOOOOO+OOOOOOOOOO+O+OO",
"OOOOOOOOOOOOOOOOOOOOOOOO@OOOOOOOOOOOOOOOOOO+O+OOOOOOOOOOOOOO",
"OOOOOOOOOOOO+OOOOOOOOOO+O+OOOOOOOOOOOOOOOOOOOOOOOOOOOOOOOOOO",
"OOOOOOOOOOO+O+OOOOOOOOOOOOOOOOOOOOOOOOOOOOOOOOOOOOOOOOOOOOOO",
"OOOOOOOOOOOOOOOOOOOOOOOOOOOOOOOOOOOOOOOOOOOOOOOOOOOOOOOOOOOO",
"OOOOOOOOOOOOOOOOOOOOOOOOOOOOOOOOOOOOOOOOOOOOOOOOOOOOOOOOOOOO",
"OOOOOOOOOOOOOOOOOOOOOOOOOOOOOOOOOO+OOOOOOOOOOOOOOOOOOOOOOOOO",
"OOOOOOOOOOOOOOOOOOOOOOOOOOOOOOOOO+O+OOOOOOOOOOOO@OOOOOOOOOOO",
"OO+OOOOOOOOOOOOOOOOOOOOOOOOOOOOOOOOOOOOOOOOOOOO+O+OOOOOOOOOO",
"O+O+OOOOOOOOOOOO@OOOOOOOOOO     OOOOOOOOOOOOOOOOOOOOOOOOOOO+",
"OOOOOOOOOOOOOOO+O+OOOOOOOO  oooo  OOOOOOOOOOOOOOOOOOOOOOOO+O",
"OOOOOOOOOOOO      OOOOOOO .oooooo  OOOOOOOOOOOOOOOOOOOOOOOOO",
"OOOOOOOOOOO  #####        ..ooooooo  OOOOOOOOOOOOOOOOOOOOOOO",
"OOOOOOOOOO ############oooo.oooooooo  O@OOOOOOOOOOOOOOOOOOOO",
"OOOOOOOOO  ########oooooooo.ooooooooo   +OOOOOOOOOOOOOOOOOOO",
"OOOOOOO@O ###ooooooooooooooo..ooooooo..o  OOOO+OOOOOOOOOOOOO",
"OOOOOO+O+ ###oooooooooooooooo..ooooo...oo  OO+O+OOOOOOOOOOOO",
"@OOOOOOOO ##ooooooooooooooooooo.oo..oo.ooo  OOOOOOOOOOOOOOOO",
"O+OOOOOOO ##oooooooooooooooooooo...ooo...ooo  O+OOOOOOOOOOOO",
"OOOOOOOOO  #oooooooooooooooooooo..oooooo.oooo  OOOOOOOOOOOOO",
"OOOOOOOOOO #oooooooooooooooooooo.ooooooo.ooooo +OOOOOOOOOOOO",
"OOOOOOOOOOO ooooooooooooooooooo..ooooooo.ooooo  OOOOOOOOOOOO",
"OOOOOOOOOOOO oooooooooooooooooo.ooooooooooooooo OOOOOOOOOOOO",
"OOOOOOOOOOOO ooooooooooooooooo.......oooooooooX OOOOOOOOOOOO",
"OOOOOOOOOO@O oooooooooooooooo.oooooo..ooooooooX OOOOOOOOO@OO",
"OOOOOOOOO+O+ ooooooooooooooo..ooooooo.ooooooooX OOOOOOOO+O+O",
"OOOOOOOOOOO ooooooooooooooo..oooooooo.oooooooXX OOOOOOOOOOOO",
"OOOOOOOOOO  ooooo..........o.oooooooo.oooooooXX OOOOOOOOOOOO",
"OOOOOOOOOO ooooo..oooooooooo.oooooooo.ooooooXXX OOOOOOOOOOOO",
"OOOOOOOOOO oooo.ooooooooooooo.ooooooo..ooooXXX  OOOOOOOOOOOO",
"O@OOOOOOOO oooo.ooooooooooooo.oooooooo..ooXXX  OOOOOOOOOOOOO",
"+O+OOOOOOO ooo.oooooooooooooooooooooooo..oXXX OOOOOOOO@OOOOO",
"OOOOOOOOOO ooo.ooooooooooooooooooooooooo.XXX  OOOOOOO+O+OOOO",
"OOOOOOOOOO oo.oooooooooooooooooooooooooo.XXX OOOOOOOOOOOOOOO",
"OOOOOOOOOOO    oooooooooooooooooooooXXXX..X OOOOOOOOOOOOOOOO",
"OOOOOOOOOOOOOO        oooooooooooXXXXXX    OOOOOOOOOOOOOOOOO",
"OOOOOOOOOOOOOOOOOOOOO                   OOOOOOOOOOOOOOOOOOOO",
"OOOOOOOOOOOOOOOOOOOOOOOOOOOOOOOOOOOOOOOOOOOOOOOOOOOOOOOOOOOO",
"OOOOOOOOOOOOOOOOOOOOOOOOOOOOOOOO+OOOOOOOOOOOOOOOOOOOOOOOOOOO",
"OOOO+OOOOOOOOOOOOOOOOOOOOOOOOOOOO+OOOOOOOOOOOO@OOOOOOOOOOOOO",
"OOO+O+OOOOOOOOOOOO@OOOOOOOOOOOOOOOOOOOOOOOOOO+O+OOOOOOOOOOOO",
"OOOOOOOOOOOOOOOOO+O+OOOOOOOOOOOOOOOOOOOOOOOOOOOOOOOOOOOOO+OO",
"OOOOOOOOOOOOOOOOOOOOOOOOOOOOO+OOOOOOOOOOOOOOOOOOOOOOOOOO+O+O",
"OOOOOOOOOOOOOOOOOOOOOOOOOOOO+O+OOOOOOOOOOOOOOOOOOOOOOOOOOOOO",
"OOOOOOOOOOOOOOOOOOOOOOOOOOOOOOOOOOOOOOOOOOOOOOOOOOOOOOOOOOOO",
"OOOOOOOOOOOOOOOOOOOOOOOOOOOOOOOOOOOOO@OOOOOOOOOOOOOOOOOOOOOO",
"OOOOOOOOO@OOOOOOOOOOOOOOOOOOOOOOOOOO+O+OOOOOOOOOOOOOOOOOOOOO",
"OOOOOOOO+O+OOOOOOOOOOOOOOOOOOOOOOOOOOOOOOOOO+OOOOOOOOOOOOOOO",
"OO@OOOOOOOOOOOOO+OOOOOOOOOOOOOOOOOOOOOOOOOO+O+OOOOOOOOOOOOOO",
"O+O+OOOOOOOOOOO+O+OOOOOOOOOOOOOOOOOOOOOOOOOOOOOOOOOOOOOOOOOO"
};
