/* XPM */
static char *_887dcf55eb343c589e7ae15f123b767qBGuCQbny0tlZrc1[] = {
/* columns rows colors chars-per-pixel */
"60 60 9 1 ",
"  c black",
". c #6C0000",
"X c #C41411",
"o c #E51C23",
"O c #003D91",
"+ c #155BBD",
"@ c #1866D8",
"# c #3F83EA",
"$ c white",
/* pixels */
"OOOOOOOOOOOOOOOOOOOOOOOOOOOOOOOOOOOOOOOOOOOOOOOOOOOOOOOOOOOO",
"OOOOOOOOOOOOOOOOOOOOOOOOOOOOOOOOOOOOOOOOOOOOOOOOOOOOOOOOOOOO",
"OOOOOOOOOOOOOOOOOOOOOOOOOOOOOOOOOOOOOOOOOOOOOOOOOOOOOOOOOOOO",
"OOOOOOOOOOOOOO++++++OOOOOOOOOOOOOOOOOOOOOOOOOOO++++OOOOOOOOO",
"OOO++OOOOOOOOO+++++++++++++#++++++++OOO+++++++++++++++OOOOOO",
"OOO+++OOOOOOOO++++++++++++@+@++++++++++++++++++++++++++++OOO",
"OOO+++OOO++++++++++++++++++++++++++++++++++++++++++++++++OOO",
"OOO++++++++++++++++++++++++++++#+++++++++++++++++++++++++OOO",
"OOO+++++++++++++++++++++++++++@+@++++++++++++++++++++++++OOO",
"OOO+++++++++++++++++++++++++++++++++++++++++++++++++++++#OOO",
"OOO+++++++++++++++++++++++++++++++++++++++++@++++++++++@+OOO",
"OOO+++++++++++++++++++++#++++++++++++++++++@+@++++++++++++OO",
"OOO+++++++++@++++++++++@+@++++++++++++++++++++++++++++++++OO",
"OOO++++++++@+@++++++++++++++++++++++++++++++++++++++++++++OO",
"OOO+++++++++++++++++++++++++++++++++++++++++++++++++++++++OO",
"OOOO++++++++++++++++++++++++++++++++++++++++++++++++++++++OO",
"OOOOO+++++++++++++++++++++++++++++@+++++++++++++++++++++++OO",
"OOOOO++++++++++++++++++++++++++++@+@++++++++++++#+++++++++OO",
"OOOOO++++++++++++++++++++++++++++++++++++++++++@+@++++++++OO",
"OOOOO+++++++++++#++++++++++++++++++++++++++++++++++++++++OOO",
"OOOOO++++++++++@+@+++++++++++++++++++++++++++++++++++++++OOO",
"OOOO+++++++++++++++++++++++@+++++++++++++++++++++++++++++OOO",
"OOOO++++++++++++++++++++++@+@+++++++++++++ +++++++++++++OOOO",
"OOOO++++++++++++++++++++++++      +++++ + X ++++++++++++OOOO",
"OOOO+++++++++++++++++++++++ oooooo +++ o oX ++++++++++++OOOO",
"OOOO+++#++++++++++++++++++ oooooooo + ooooX ++@+++++++++OOOO",
"OOOO++@+@++++++++++++++++ oo.oooo.oo  XXXX ++@+@++++++++OOOO",
"OOOO++++++++++@+++ ++++++ oo..oo..oo      ++++++++++++++OOOO",
"OOOO+++++++++@+@+ X ++ ++ oooooooooo  +++++++@+@++++++++OOOO",
"OOOOO++++++++++++ Xo  o   XooooooooX +++++++++@+++++++++OOOO",
"OOOOO++++++++++$++ oooooo  XooooooX   +++++++@+@++++++++OOOO",
"OOOOO++++++++++$+@+ XoXXX           oo +++++++++++++++++OOOO",
"OOOOO+++++++++++++++ X   o +++++++++ oo ++++++++++++++++OOOO",
"OOOOO++++++++++++$+++ + o +++++++++++ X ++++++++++++++++OOOO",
"OOOO++++++#++++++$+++++ o +++++++++++ X ++++++++++++++++OOOO",
"OOOO+++++@+@+++++++$++++ ++++#++++++++ +++++++++++++++++OOOO",
"OOOO+++++++++++++++$++++++++@+@++++++++++++++++++++++++++OOO",
"OOO++++++++++++++++++++++++++++++++++++++++++++++++++++++OOO",
"OOOO+++++++++++++++++++++++++++++++++++++++++++++++++++++OOO",
"OOOO+++++++++++++++++++++++++++++++++++++++++++++++++++++OOO",
"OOOO+++++++++++++++++++++++++++++++++++++++++++++++++++++OOO",
"OOOO++++++++++++++++++++++++++++++++++++++++++++++++++#+++OO",
"OOOO++++++++++++++++++++++#+++++++++++++++@++++++++++@+@+OOO",
"OOOO++++++++++@++++++++++@+@+++++++++++++@+@+++++++++++++OOO",
"OOOO+++++++++@+@+++++++++++++++++++++++++++++++++++++++++OOO",
"OOOO+++++++++++++++++++++++++++++++++++++++++++++++++++++OOO",
"OOOO+++++++++++++++++++++++++++++++++++++++++++++++++++++OOO",
"OOOO+++++++++++++++++++++++++++++++++++++++++++++++++++++OOO",
"OOOO++++++++++++++++++++++++++++@+++++++++++++++++++++++OOOO",
"OOOO@++++++++++++++++++++++++++++@++++++++++++#+++++++++OOOO",
"OOOO+@++++++++++++#++++++++++++++++++++++++++@+@+++++++++OOO",
"OOOO+++++++++++++@+@+++++++++++++++++++++++++++++++++++++OOO",
"OOOO+++++++++++++++++++++++++@++++++++++++++++++++++++++@OOO",
"OOOOO+++++++++++++++++++++++@+@++++++++++++++++++++++++++OOO",
"OOOOO+++OO+++++++++++++++++++++++++++++++++++++++++++++++OOO",
"OOOO++OOOOOOOOOOOO+++++++++++++++++++#++++++++++++++++OO+OOO",
"OOOOOOOOOOOOOOOOOOOO+++++++++OOOOOOO@+@+++++++OOO+++OOOO+OOO",
"OOOOOOOOOOOOOOOOOOOOOOOOOOOOOOOOOOOOOOOOO+++@OOOOOOOOOOOOOOO",
"OOOOOOOOOOOOOOOOOOOOOOOOOOOOOOOOOOOOOOOOOOOOOOOOOOOOOOOOOOOO",
"OOOOOOOOOOOOOOOOOOOOOOOOOOOOOOOOOOOOOOOOOOOOOOOOOOOOOOOOOOOO"
};
