/* XPM */
static char *b8bd631b27ac484bfbba4f8af7cde949EvGu1T8IjqF0EYPx[] = {
/* columns rows colors chars-per-pixel */
"60 60 8 1 ",
"  c black",
". c #CA9421",
"X c #DAC330",
"o c #003D91",
"O c #155BBD",
"+ c #1866D8",
"@ c #3F83EA",
"# c #FAD585",
/* pixels */
"oooooooooooooooooooooooooooooooooooooooooooooooooooooooooooo",
"oooooooooooooooooooooooooooooooooooooooooooooooooooooooooooo",
"oooooooooooooooooooooooooooooooooooooooooooooooooooooooooooo",
"ooooooooooooooOOOOOOoooooooooooooooooooooooooooOOOOooooooooo",
"oooOOoooooooooOOOOOOOOOOOOO@OOOOOOOOoooOOOOOOOOOOOOOOOoooooo",
"oooOOOooooooooOOOOOOOOOOOO+O+OOOOOOOOOOOOOOOOOOOOOOOOOOOOooo",
"oooOOOoooOOOOOOOOOOOOOOOOOOOOOOOOOOOOOOOOOOOOOOOOOOOOOOOOooo",
"oooOOOOOOOOOOOOOOOOOOOOOOOOOOOO@OOOOOOOOOOOOOOOOOOOOOOOOOooo",
"oooOOOOOOOOOOOOOOOOOOOOOOOOOOO+O+OOOOOOOOOOOOOOOOOOOOOOOOooo",
"oooOOOOOOOOOOOOOOOOOOOOOOOOOOOOOOOOOOOOOOOOOOOOOOOOOOOOO@ooo",
"oooOOOOOOOOOOOOOOOOOOOOOOOOOOOOOOOOOOOOOOOOO+OOOOOOOOOO+Oooo",
"oooOOOOOOOOOOOOOOOOOOOOO@OOOOOOOOOOOOOOOOOO+O+OOOOOOOOOOOOoo",
"oooOOOOOOOOO+OOOOOOOOOO+O+OOOOOOOOOOOOOOOOOOOOOOOOOOOOOOOOoo",
"oooOOOOOOOO+O+OOOOOOOOOOOOOOOOOOOOOOOOOOOOOOOOOOOOOOOOOOOOoo",
"oooOOOOOOOOOOOOOOOOOOOOOOOOOOOOOOOOOOOOOOOOOOOOOOOOOOOOOOOoo",
"ooooOOOOOOOOOOOOOOOOOOOOOOOOOOOOOOOOOOOOOOOOOOOOOOOOOOOOOOoo",
"oooooOOOOOOOOOOOOOOOOOOOOOOOOOOOOO+OOOOOOOOOOOOOOOOOOOOOOOoo",
"oooooOOOOOOOOOOOOOOOOOOOOOOOOOOOO+O+OOOOOOOOOOOO@OOOOOOOOOoo",
"oooooOOOOOOOOOOOOOOOOOOOOOOOOOOOOOOOOOOOOOOOOOO+O+OOOOOOOOoo",
"oooooOOOOOOOOOOO@OOOOOOOOOOOO OOOOOOOOOOOOOOOOOOOOOOOOOOOooo",
"oooooOOOOOOOOOO+O+OOOOOOOOOO X OOOOOOOOOOOOOOOOOOOOOOOOOOooo",
"ooooOOOOOOOOOOOOOOOOOOOOOOO+ X OOOOOOOOOOOOOOOOOOOOOOOOOOooo",
"ooooOOOOOOOOOOOOOOOOOOOOOO+ #XX OOOOOOOOOOOOOOOOOOOOOOOOoooo",
"ooooOOOOOOOOOOOOOOOOOOOOOOO #XX OOOOOOO@OOOOOOOOOOOOOOOOoooo",
"ooooOOOOOOOOOOOOOOOOOOOOOOO #XX OOOOOO+O+OOOOOOOOOOOOOOOoooo",
"ooooOOO@OOOOOOOOOOOOOO     X#XXX     OOOOOOOOO+OOOOOOOOOoooo",
"ooooOO+O+OOOOOOOOOOOO XXX####XXX###XX OOOOOOO+O+OOOOOOOOoooo",
"ooooOOOOOOOOOO+OOOOOOO XXXXXXXXXXXXX OOOOOOOOOOOOOOOOOOOoooo",
"ooooOOOOOOOOO+O+OOOOOOO XXXXXXXXXXX OOOOOOOOO+O+OOOOOOOOoooo",
"oooooOOOOOOOOOOOOOOOOOOO XXXXXXXXX OOOOOOOOOOO+OOOOOOOOOoooo",
"oooooOOOOOOOOOOOOO+OOOOOO XXXXXXX OOOOOOOOOOO+O+OOOOOOOOoooo",
"oooooOOOOOOOOOOOO+O+OOOOOO XXXXX OOOOOOOOOOOOOOOOOOOOOOOoooo",
"oooooOOOOOOOOOOOOOOOOOOOO .XXXXX. OOOOOOOOOOOOOOOOOOOOOOoooo",
"oooooOOOOOOOOOOOOOOOOOOOO .XXXXX. OOOO@OOOOOOOOOOOOOOOOOoooo",
"ooooOOOOOO@OOOOOOOOOOOOO .XXX.XXX. OO+O+OOOOOOOOOOOOOOOOoooo",
"ooooOOOOO+O+OOOOOOOOOOOO .X.. ..X. OOOOOOOOOOOOOOOOOOOOOoooo",
"ooooOOOOOOOOOOOOOOOOOOO ...  O  ... OOOOOOOOOOOOOOOOOOOOOooo",
"oooOOOOOOOOOOOOOOOOOOOO .  OOOOO  . OOOOOOOOOOOOOOOOOOOOOooo",
"ooooOOOOOOOOOOOOOOOOOOOO OOOOOOOOO OOOOOOOOOOOOOOOOOOOOOOooo",
"ooooOOOOOOOOOOOOOOOOOOOOOOOOOOOOOOOOOOOOOOOOOOOOOOOOOOOOOooo",
"ooooOOOOOOOOOOOOOOOOOOOOOOOOOOOOOOOOOOOOOOOOOOOOOOOOOOOOOooo",
"ooooOOOOOOOOOOOOOOOOOOOOOOOOOOOOOOOOOOOOOOOOOOOOOOOOOO@OOOoo",
"ooooOOOOOOOOOOOOOOOOOOOOOO@OOOOOOOOOOOOOOO+OOOOOOOOOO+O+Oooo",
"ooooOOOOOOOOOO+OOOOOOOOOO+O+OOOOOOOOOOOOO+O+OOOOOOOOOOOOOooo",
"ooooOOOOOOOOO+O+OOOOOOOOOOOOOOOOOOOOOOOOOOOOOOOOOOOOOOOOOooo",
"ooooOOOOOOOOOOOOOOOOOOOOOOOOOOOOOOOOOOOOOOOOOOOOOOOOOOOOOooo",
"ooooOOOOOOOOOOOOOOOOOOOOOOOOOOOOOOOOOOOOOOOOOOOOOOOOOOOOOooo",
"ooooOOOOOOOOOOOOOOOOOOOOOOOOOOOOOOOOOOOOOOOOOOOOOOOOOOOOOooo",
"ooooOOOOOOOOOOOOOOOOOOOOOOOOOOOO+OOOOOOOOOOOOOOOOOOOOOOOoooo",
"oooo+OOOOOOOOOOOOOOOOOOOOOOOOOOOO+OOOOOOOOOOOO@OOOOOOOOOoooo",
"ooooO+OOOOOOOOOOOO@OOOOOOOOOOOOOOOOOOOOOOOOOO+O+OOOOOOOOOooo",
"ooooOOOOOOOOOOOOO+O+OOOOOOOOOOOOOOOOOOOOOOOOOOOOOOOOOOOOOooo",
"ooooOOOOOOOOOOOOOOOOOOOOOOOOO+OOOOOOOOOOOOOOOOOOOOOOOOOO+ooo",
"oooooOOOOOOOOOOOOOOOOOOOOOOO+O+OOOOOOOOOOOOOOOOOOOOOOOOOOooo",
"oooooOOOooOOOOOOOOOOOOOOOOOOOOOOOOOOOOOOOOOOOOOOOOOOOOOOOooo",
"ooooOOooooooooooooOOOOOOOOOOOOOOOOOOO@OOOOOOOOOOOOOOOOooOooo",
"ooooooooooooooooooooOOOOOOOOOooooooo+O+OOOOOOOoooOOOooooOooo",
"oooooooooooooooooooooooooooooooooooooooooOOO+ooooooooooooooo",
"oooooooooooooooooooooooooooooooooooooooooooooooooooooooooooo",
"oooooooooooooooooooooooooooooooooooooooooooooooooooooooooooo"
};
