/* XPM */
static char *eb1c3b5cc7184b86d4dca1363af00629lpfIkWrYHDQzf3qn[] = {
/* columns rows colors chars-per-pixel */
"60 60 11 1 ",
"  c black",
". c #753F08",
"X c #8F722B",
"o c #CA5419",
"O c #75CA19",
"+ c #E8A903",
"@ c #E9C41F",
"# c #CBA854",
"$ c #E3C273",
"% c #CA19C1",
"& c white",
/* pixels */
"############################################################",
"############################################################",
"############################################################",
"###################################################$$$$#####",
"###########$#############$$$$#####$$$$$$##########$$$$$$####",
"####$$$$$$$$$$$$$$$$$$$$$$$$$$$$$$$$$$$$$$$$$$$$$$$$$$$$####",
"####$$$$$$$$$$$$$$$$$$$$$$$$$$$$$$$$$$$$$$$$$$$$$$$$$$$$####",
"####$$$$$$$$$$$$$$$$$$$$$$$$$$$$$$$X$$$$XXXXX$$$$$$$$$$$####",
"####$$$$$$$$$$$$$$$$$$$$$$$$$$$$XXXX$$$$$$$$$$$$$$$$$$$$####",
"####$$$$$$$$$$$$$$$$$$$$$$$$$$$X$$$$$$$$$$$$$$$$$$$$$$$$####",
"####$$$$$$$$$$$$$$$$$$$$$$$$$$$$$$$$$$$$$$$$$$$$$$$$$$$$####",
"#####$$$$$$$$$$$$$$$$$$$$X$$$$$$$$$$$$$$$$$$$$$$$$$$$$$$####",
"#####$$$$XXXX$$$$$$$$$$$$$$$$$$$$$$$$$$$$$$$$$$$$$$$$$$$####",
"#####$$$$$$$$$$$$$$$$$$$$$$$$$$$$$$$$$$$$$$$$$$$$$$$$$$$####",
"#####$$$$$$$$$$$$$$$$$$$$$$$$$$$$$$$$$$$$$$$$$$$$$$$$$$$####",
"#####$$$$$$$$$$$$$$$$$$$$$$$$$$$$$$$X$$$$$$$$$$$$$$$X$$$####",
"#####$$$$$$$$$$$$$$$$$$$$$$$$ $$$$$XX$$$$$$$$$$$$$$X$$$$####",
"#####$$$$$$$$$$XX$$$$$$$$$$$ + $$$$$$$$$$$$$$$$$$$XX$$$$####",
"####$$$$$$$$$$$$XX$$$$$$$$$ +++$$$$$$$$$$$$$$$$$$$$$$$$$####",
"####$$$$$$$$$$$$$X$$$$$$$$$ +++ $$$$$$$$$$$$$$$$$$$$$$$$####",
"####$$$$$$                 +++++                $$$$$$$$####",
"####$$$$$$ @@@@@@@@@@@@@@@@@@@@@@@@@@@@@@@@@@@@@ $$$$$$$####",
"####$$$$$$ @@@@@@@@@@@@@@@@@@@@@@@@@@@@@@@@@@@@@ $$$$$$$$###",
"####$$$$$$ @@.................................@@ $$$$$$$$###",
"####$$$$$$ @@.................................@@ $$$$$$$$###",
"####$$$$$$ @@................++...............@@ $$$$$$$$###",
"###$$$$$$$ @@...............+&++................ $$$$$$$$###",
"##$$$$$$$$ ..............+++++&+++.............. $$$$$$$$###",
"##$$$$$$$$ ............++++++++++O+............. $$$$$$$$###",
"##$$$$$$$$ ..........+++++o+++o+++O+++.......... $$$$$$$####",
"##$$$$$$$$ .........++%%++++++++++++++.......... $$$$$$$####",
"###$$$$$$$ ........+++++++++++++++++&++......... $$$$$$$####",
"###$$$$$$$ .......+++++O+oo+++++oo+++++++....... $$$$$$$####",
"####$$$$$ ...+Oo++%+++O++++++++++++++++O+++o..... $X$$$$####",
"####$$$$$ ..++++++%+++++&++++++++++%++++O+++++... $$$$$$####",
"####$$$$$ +++++++++++++&+++++OOOO+++%++++++++++++ $$$$$#####",
"####$$$                                             $$$#####",
"####$$ @@@@@@@@@@@@@@@@@@@@@@@@@@@@@@@@@@@@@@@@@@@@@ $$#####",
"####$$ @@@@@@@@@@@@@@@@@@@@@@@@@@@@@@@@@@@@@@@@@@@@@ $$#####",
"####$$ @@................@@....@@.................@@ $$#####",
"####$$ @@................@@....@@.................@@ $$#####",
"####$$ ..................@@....@@................... $$#####",
"####$$ ..................@@@@@@@@................... $$#####",
"####$$ ..................@@@@@@@@................... $$#####",
"####$$ ............................................. $$#####",
"####$$ ............................................. $$$####",
"####$$ ............................................. $$$####",
"####$$ ............................................. $$$####",
"####$$ @@.........................................@@ $$$####",
"####$$ @@.........................................@@ $$$####",
"####$$ @@.........................................@@ $$$####",
"####$$ @@.........................................@@ $$$####",
"####$$ @@.........................................@@ $$$####",
"####$$ @@@@@@.................................@@@@@@ $$$$###",
"####$$ @@@@@@                                 @@@@@@ $$$$###",
"####$$$      $$$$$$$$$$$$$$$$$###$$$$$$$$$$$$$      $$$$$###",
"########$$$$$$$$$$$$$$$$$$$$$######$$#####$$$$$$$$$$$$$$$###",
"#################$$$$$$$$$$$################$$$$$$$$$$$$$###",
"############################################################",
"############################################################"
};
