/* XPM */
static char *_b23a3df1b6149e2c1d01204b9329e5bPpGAw8NiaM8syFHL[] = {
/* columns rows colors chars-per-pixel */
"60 60 8 1 ",
"  c black",
". c #0C4117",
"X c #515752",
"o c #747975",
"O c #8F722B",
"+ c #CBA854",
"@ c #E3C273",
"# c #ADB7AF",
/* pixels */
"++++++++++++++++++++++++++++++++++++++++++++++++++++++++++++",
"++++++++++++++++++++++++++++++++++++++++++++++++++++++++++++",
"++++++++++++++++++++++++++++++++++++++++++++++++++++++++++++",
"+++++++++++++++++++++++++++++++++++++++++++++++++++@@@@+++++",
"+++++++++++@+++++++++++++@@@@+++++@@@@@@++++++++++@@@@@@++++",
"++++@@@@@@@@@@@@@@@@@@@@@@@@@@@@@@@@@@@@@@@@@@@@@@@@@@@@++++",
"++++@@@@@@@@@@@@@@@@@@@@@@@@@@@@@@@@@@@@@@@@@@@@@@@@@@@@++++",
"++++@@@@@@@@@@@@@@@@@@@@@@@@@@@@@@@O@@@@OOOOO@@@@@@@@@@@++++",
"++++@@@@@@@@@@@@@@@@@@@@@@@@@@@@OOOO@@@@@@@@@@@@@@@@@@@@++++",
"++++@@@@@@@@@@@@@@@@@@@@@@@@@@@O@@@@@@@@@@@@@@@@@@@@@@@@++++",
"++++@@@@@@@@@@@@@@@@@@@@@@@@@@@@@@@@@@@@@@@@@@@@@@@@@@@@++++",
"+++++@@@@@@@@@@@@@@@@@@@@O@@@@@@@@@@@@@@@@@@@@@@@@@@@@@@++++",
"+++++@@@@OOOO@@@@@@@@@@@@@@@@@@@@@@@@@@@@@@@@@@@@@@@@@@@++++",
"+++++@@@@@@@@@@@@@@@@@@@@@@@@@@@@@@@@@@@@@@@@@@@@@@@@@@@++++",
"+++++@@@@@@@@@@@@@@@@@@@@@@@@@@@@@@@@@@@@@@@@@@@@@@@@@@@++++",
"+++++@@@@@@@@@@@@@@@@@@@@@@@@@@@@@@@O@@@@@@@@@@@@@@@O@@@++++",
"+++++@@@@@@@@@@@@@@@@@@@@@@@@@@@@@@OO@@@@@@@@@@@@@@O@@@@++++",
"+++++@@@@@@@@@@OO@@@@@@@@@@@@@@@@@@@@@@@@@@@@@@@@@OO@@@@++++",
"++++@@@@@@@@@@@@OO@@@@@@@@@@@@@@@@@@@@@@@@@@@@@@@@@@@@@@++++",
"++++@@@@@@@@@@@@@O@@@@@@@@@     @@@@@@@@@@@@@@@@@@@@@@@@++++",
"++++@@@@@@@@@@@@@@@@@@@@@@  oooo @@@@@@@@@@@@@@@@@@@@@@@++++",
"++++@@@@@@@@@     @@@@@@@ .oooooo @@@@@@@@@@@@@@@@@@@@@@++++",
"++++@@@@@@@  #####        ..ooooooo  @@@@@@@@@@@@@@@@@@@@+++",
"++++@@@@@@@############oooo.oooooooo  @@@@@@@@@@@@@@@@@@@+++",
"++++@@@@@  ########oooooooo.ooooooooo   @@@@O@@@@@@@@@@@@+++",
"++++@@@@@ ###ooooooooooooooo..ooooooo..o  @@@@@@@@@@@@@@@+++",
"+++@@@@@@ ###oooooooooooooooo..ooooo...oo  @@@@@@@@@@@@@@+++",
"++@@@@@@@ ##ooooooooooooooooooo.oo..oo.ooo  @@@@@@@@@@@@@+++",
"++@@@@@@@ ##oooooooooooooooooooo...ooo...ooo  @@@@@@@@@@@+++",
"++@@@@@@@  #oooooooooooooooooooo..oooooo.oooo  @@@@@@@@@++++",
"++@@@@@@@@ #oooooooooooooooooooo.ooooooo.ooooo @@@@@@@@@++++",
"+++@@@@@@@@ ooooooooooooooooooo..ooooooo.ooooo  @@@@@@@@++++",
"+++@@@@@@@@@ oooooooooooooooooo.ooooooooooooooo @@@@@@@@++++",
"++++@@@@@@@@ ooooooooooooooooo.......oooooooooX @@@O@@@@++++",
"++++@@@@@@@@ oooooooooooooooo.oooooo..ooooooooX @@@@@@@@++++",
"++++@@@@@@@@ ooooooooooooooo..ooooooo.ooooooooX @@@@@@@+++++",
"++++@@@@@@@ ooooooooooooooo..oooooooo.oooooooXX @@@@@@@+++++",
"++++@@@@@@  ooooo..........o.oooooooo.oooooooXX @@@@@@@+++++",
"++++@@@@@@ ooooo..oooooooooo.oooooooo.ooooooXXX @@@@@@@+++++",
"++++@@@@@@ oooo.ooooooooooooo.ooooooo..ooooXXX  @@@@@@@+++++",
"++++@@@@@@ oooo.ooooooooooooo.oooooooo..ooXXX  @@@@@@@@+++++",
"++++@@@@@@ ooo.oooooooooooooooooooooooo..oXXX @@@@@@@@@+++++",
"++++@@@@@@ ooo.ooooooooooooooooooooooooo.XXX  @@@@@@@@@+++++",
"++++@@@@@@ oo.oooooooooooooooooooooooooo.XXX @@@@@@@@@@+++++",
"++++@@@@@@@    oooooooooooooooooooooXXXX..X O@@@@@@@@@@+++++",
"++++@@@@@@@@@@        oooooooooooXXXXXX    @@@@@@@@@@@@@++++",
"++++@@@@@@@@@@@@@@@@@@                 @@@@@@@@@@@@@@@@@++++",
"++++@@@@@@@@@@@@@@@@@@@@@@@@@@@@@@@@@@@@@@@@@@@@@@@@@@@@++++",
"++++@@@@@@@@@@@@OO@@@@@@@@@@@@@@@@@@@@@@@@@@@@@@@@@@@@@@++++",
"++++@@@@@@@@@@@@@@@@@@@@@@@@@@@@@O@@@@@@@@@@@@@@@@@@@@@@++++",
"++++@@@@@@@@@@@@@@@@@@@@@@@@@@@@@@@@@@@@@@@@@@@@@@@OO@@@++++",
"++++@@@@@@@@@@@@@@@@@@@@@@@@@@@@@@@@@@@@@@@@@@@@@@@@@@@@++++",
"++++@@@@@@@@@@@@@@@@@@@@@@@@@@@@@@@@@@@@@@@@@@@@@@@@@@@@++++",
"++++@@@@@@@@@@@OOOOO@@@@@@@@@@@@@@@@@@@@@@@@@@@@@@@@@@@@@+++",
"++++@@@@@@@@OOO@@@@@OOOOOO@@@@@@@@@@@@@@@@@@@@@@@@@@@@@@@+++",
"++++@@@@@@@@@@@@@@@@@@@@@@@@@@+++@@@@@@@@@@@@@@@@@@@@@@@@+++",
"++++++++@@@@@@@@@@@@@@@@@@@@@++++++@@+++++@@@@@@@@@@@@@@@+++",
"+++++++++++++++++@@@@@@@@@@@++++++++++++++++@@@@@@@@@@@@@+++",
"++++++++++++++++++++++++++++++++++++++++++++++++++++++++++++",
"++++++++++++++++++++++++++++++++++++++++++++++++++++++++++++"
};
