/* XPM */
static char *result[] = {
/* columns rows colors chars-per-pixel */
"60 60 3 1 ",
"  c #155BBD",
". c #1866D8",
"X c #3F83EA",
/* pixels */
"               . .                                          ",
"                                        X                   ",
"                                       . .                 X",
"        X                                                 . ",
"       . .                 X                                ",
"                          . .                               ",
"                                                            ",
"                               X                            ",
"                              . .                           ",
"                                                        X   ",
".                                           .          . .  ",
"                        X                  . .              ",
"            .          . .                                  ",
"           . .                                              ",
"                                                            ",
"                                                            ",
"                                  .                         ",
"                                 . .            X           ",
"  .                                            . .          ",
" . .            X                                          .",
"               . .                                        . ",
"                           .                                ",
"                          . .                               ",
"                                       X                    ",
"                                      . .                   ",
"       X                        X             .             ",
"      . .                      . .           . .            ",
"X             .                                             ",
" .           . .                             . .            ",
"                                              .             ",
"                  .                          . .            ",
"                 . .                                        ",
"                                                            ",
"                                      X                     ",
"          X                          . .                 X  ",
"         . .                 X                          . . ",
"                            . .                             ",
"                                                            ",
"                                                            ",
"                                                            ",
" X                                                          ",
". .                                                   X     ",
"                          X               .          . .    ",
"              .          . .             . .                ",
"             . .                                            ",
"                                                            ",
"                                                            ",
"                                                            ",
"                                .                           ",
"    .                            .            X             ",
"   . .            X                          . .            ",
"                 . .                                     .  ",
"                             .                          . . ",
"                            . .                             ",
"                                                            ",
"                                     X                      ",
"         X                          . .                     ",
"        . .                                 .               ",
"  X             .                          . .              ",
" . .           . .                                          "
};
